MonoIcons/scalable/status/user-offline-symbolic.svg

<?xml version="1.0" encoding="UTF-8"?>
<svg height="16px" viewBox="0 0 16 16" width="16px" xmlns="http://www.w3.org/2000/svg">
    <path d="m 3 1 c -1.644531 0 -3 1.355469 -3 3 v 6 c 0 1.644531 1.355469 3 3 3 h 1 v 3 l 3 -3 h 6 c 1.644531 0 3 -1.355469 3 -3 v -6 c 0 -1.644531 -1.355469 -3 -3 -3 z m 3 3 c 0.265625 0 0.519531 0.105469 0.707031 0.292969 l 1.292969 1.292969 l 1.292969 -1.292969 c 0.1875 -0.1875 0.441406 -0.292969 0.707031 -0.292969 s 0.519531 0.105469 0.707031 0.292969 c 0.390625 0.390625 0.390625 1.023437 0 1.414062 l -1.292969 1.292969 l 1.292969 1.292969 c 0.390625 0.390625 0.390625 1.023437 0 1.414062 s -1.023437 0.390625 -1.414062 0 l -1.292969 -1.292969 l -1.292969 1.292969 c -0.390625 0.390625 -1.023437 0.390625 -1.414062 0 s -0.390625 -1.023437 0 -1.414062 l 1.292969 -1.292969 l -1.292969 -1.292969 c -0.390625 -0.390625 -0.390625 -1.023437 0 -1.414062 c 0.1875 -0.1875 0.441406 -0.292969 0.707031 -0.292969 z m 0 0" fill="#2e3434" fill-opacity="0.34902"/>
</svg>

<svg width="16" height="16" viewBox="0 0 16 16" fill="none" xmlns="http://www.w3.org/2000/svg">
<path d="M3 1C1.35547 1 0 2.35547 0 4V10C0 11.6445 1.35547 13 3 13H4V16L7 13H13C14.6445 13 16 11.6445 16 10V4C16 2.35547 14.6445 1 13 1H3ZM6 4C6.26562 4 6.51953 4.10547 6.70703 4.29297L8 5.58594L9.29297 4.29297C9.48047 4.10547 9.73438 4 10 4C10.2656 4 10.5195 4.10547 10.707 4.29297C11.0977 4.68359 11.0977 5.31641 10.707 5.70703L9.41406 7L10.707 8.29297C11.0977 8.68359 11.0977 9.31641 10.707 9.70703C10.3164 10.0977 9.68359 10.0977 9.29297 9.70703L8 8.41406L6.70703 9.70703C6.31641 10.0977 5.68359 10.0977 5.29297 9.70703C4.90234 9.31641 4.90234 8.68359 5.29297 8.29297L6.58594 7L5.29297 5.70703C4.90234 5.31641 4.90234 4.68359 5.29297 4.29297C5.48047 4.10547 5.73438 4 6 4V4Z" fill="#2E3436" fill-opacity="0.5"/>
</svg>
